( pcb2gcode 2.5.0 )
( Software-independent Gcode )

G94 ( Millimeters per minute feed rate. )
G21 ( Units == Millimeters. )

G90 ( Absolute coordinates. )
G00 S10000 ( RPM spindle speed. )
G01 F200.00000 ( Feedrate. )


G00 Z5.00000 (Retract to tool change height)
T1
M5      (Spindle stop.)
G04 P1.00000 (Wait for spindle to stop)
(MSG, Change tool bit to cutter diameter 1.00000mm)
M0      (Temporary machine stop.)
M3 ( Spindle on clockwise. )
G04 P1.00000 (Wait for spindle to get up to speed)
G04 P0 ( dwell for no time -- G64 should not smooth over this point )
G00 Z1.00000 ( retract )

G00 X1.37302 Y1.12698 ( rapid move to begin. )
G01 Z-0.60000 F25.00000 ( plunge. )
G04 P0 ( dwell for no time -- G64 should not smooth over this point )
G01 F200.00000
G01 X1.37302 Y24.62692
G01 X1.37302 Y29.62693
G01 X1.37302 Y53.12687
G01 X1.37048 Y53.17711
G01 X1.36081 Y53.23673
G01 X1.34399 Y53.29472
G01 X1.32032 Y53.35027
G01 X1.29014 Y53.40254
G01 X1.25387 Y53.45082
G01 X1.21938 Y53.48745
G01 X1.17338 Y53.52659
G01 X1.10538 Y53.56959
G01 X1.03134 Y53.60112
G01 X0.95321 Y53.62039
G01 X0.87300 Y53.62687
G01 X-66.62684 Y53.62687
G01 X-66.67708 Y53.62433
G01 X-66.73669 Y53.61465
G01 X-66.79468 Y53.59784
G01 X-66.85023 Y53.57417
G01 X-66.90251 Y53.54399
G01 X-66.95079 Y53.50772
G01 X-66.98742 Y53.47323
G01 X-67.02656 Y53.42723
G01 X-67.06956 Y53.35923
G01 X-67.10108 Y53.28519
G01 X-67.12036 Y53.20706
G01 X-67.12684 Y53.12687
G01 X-67.12684 Y29.62693
G01 X-67.12684 Y24.62693
G01 X-67.12684 Y1.12698
G01 X-67.12430 Y1.07671
G01 X-67.11462 Y1.01710
G01 X-67.09781 Y0.95911
G01 X-67.07413 Y0.90356
G01 X-67.04396 Y0.85129
G01 X-67.00769 Y0.80300
G01 X-66.97319 Y0.76637
G01 X-66.92719 Y0.72723
G01 X-66.85920 Y0.68423
G01 X-66.78516 Y0.65271
G01 X-66.70703 Y0.63343
G01 X-66.62684 Y0.62695
G01 X0.87300 Y0.62695
G01 X0.97303 Y0.63706
G01 X1.05969 Y0.66312
G01 X1.10538 Y0.68423
G01 X1.14869 Y0.70983
G01 X1.22657 Y0.77341
G01 X1.29014 Y0.85129
G01 X1.31575 Y0.89459
G01 X1.33685 Y0.94029
G01 X1.36292 Y1.02695
G01 X1.37302 Y1.12698
G01 Z-1.20000 F25.00000 ( plunge. )
G04 P0 ( dwell for no time -- G64 should not smooth over this point )
G01 F200.00000
G01 X1.37302 Y24.62692
G01 X1.37302 Y29.62693
G01 X1.37302 Y53.12687
G01 X1.37048 Y53.17711
G01 X1.36081 Y53.23673
G01 X1.34399 Y53.29472
G01 X1.32032 Y53.35027
G01 X1.29014 Y53.40254
G01 X1.25387 Y53.45082
G01 X1.21938 Y53.48745
G01 X1.17338 Y53.52659
G01 X1.10538 Y53.56959
G01 X1.03134 Y53.60112
G01 X0.95321 Y53.62039
G01 X0.87300 Y53.62687
G01 X-66.62684 Y53.62687
G01 X-66.67708 Y53.62433
G01 X-66.73669 Y53.61465
G01 X-66.79468 Y53.59784
G01 X-66.85023 Y53.57417
G01 X-66.90251 Y53.54399
G01 X-66.95079 Y53.50772
G01 X-66.98742 Y53.47323
G01 X-67.02656 Y53.42723
G01 X-67.06956 Y53.35923
G01 X-67.10108 Y53.28519
G01 X-67.12036 Y53.20706
G01 X-67.12684 Y53.12687
G01 X-67.12684 Y29.62693
G01 X-67.12684 Y24.62693
G01 X-67.12684 Y1.12698
G01 X-67.12430 Y1.07671
G01 X-67.11462 Y1.01710
G01 X-67.09781 Y0.95911
G01 X-67.07413 Y0.90356
G01 X-67.04396 Y0.85129
G01 X-67.00769 Y0.80300
G01 X-66.97319 Y0.76637
G01 X-66.92719 Y0.72723
G01 X-66.85920 Y0.68423
G01 X-66.78516 Y0.65271
G01 X-66.70703 Y0.63343
G01 X-66.62684 Y0.62695
G01 X0.87300 Y0.62695
G01 X0.97303 Y0.63706
G01 X1.05969 Y0.66312
G01 X1.10538 Y0.68423
G01 X1.14869 Y0.70983
G01 X1.22657 Y0.77341
G01 X1.29014 Y0.85129
G01 X1.31575 Y0.89459
G01 X1.33685 Y0.94029
G01 X1.36292 Y1.02695
G01 X1.37302 Y1.12698
G01 Z-1.80000 F25.00000 ( plunge. )
G04 P0 ( dwell for no time -- G64 should not smooth over this point )
G01 F200.00000
G01 X1.37302 Y24.62692
G00 Z-1.20000
G01 X1.37302 Y29.62693
G01 Z-1.80000 F25.00000
G01 F200.00000
G01 X1.37302 Y53.12687
G01 X1.37048 Y53.17711
G01 X1.36081 Y53.23673
G01 X1.34399 Y53.29472
G01 X1.32032 Y53.35027
G01 X1.29014 Y53.40254
G01 X1.25387 Y53.45082
G01 X1.21938 Y53.48745
G01 X1.17338 Y53.52659
G01 X1.10538 Y53.56959
G01 X1.03134 Y53.60112
G01 X0.95321 Y53.62039
G01 X0.87300 Y53.62687
G01 X-66.62684 Y53.62687
G01 X-66.67708 Y53.62433
G01 X-66.73669 Y53.61465
G01 X-66.79468 Y53.59784
G01 X-66.85023 Y53.57417
G01 X-66.90251 Y53.54399
G01 X-66.95079 Y53.50772
G01 X-66.98742 Y53.47323
G01 X-67.02656 Y53.42723
G01 X-67.06956 Y53.35923
G01 X-67.10108 Y53.28519
G01 X-67.12036 Y53.20706
G01 X-67.12684 Y53.12687
G01 X-67.12684 Y29.62693
G00 Z-1.20000
G01 X-67.12684 Y24.62693
G01 Z-1.80000 F25.00000
G01 F200.00000
G01 X-67.12684 Y1.12698
G01 X-67.12430 Y1.07671
G01 X-67.11462 Y1.01710
G01 X-67.09781 Y0.95911
G01 X-67.07413 Y0.90356
G01 X-67.04396 Y0.85129
G01 X-67.00769 Y0.80300
G01 X-66.97319 Y0.76637
G01 X-66.92719 Y0.72723
G01 X-66.85920 Y0.68423
G01 X-66.78516 Y0.65271
G01 X-66.70703 Y0.63343
G01 X-66.62684 Y0.62695
G01 X0.87300 Y0.62695
G01 X0.97303 Y0.63706
G01 X1.05969 Y0.66312
G01 X1.10538 Y0.68423
G01 X1.14869 Y0.70983
G01 X1.22657 Y0.77341
G01 X1.29014 Y0.85129
G01 X1.31575 Y0.89459
G01 X1.33685 Y0.94029
G01 X1.36292 Y1.02695
G01 X1.37302 Y1.12698

G04 P0 ( dwell for no time -- G64 should not smooth over this point )
G00 Z5.000000 ( retract )

M5 ( Spindle off. )
G04 P1.000000
M9 ( Coolant off. )
M2 ( Program end. )

