( pcb2gcode 2.5.0 )
( Software-independent Gcode )

G94 ( Millimeters per minute feed rate. )
G21 ( Units == Millimeters. )

G90 ( Absolute coordinates. )
G00 S10000 ( RPM spindle speed. )
G01 F200.00000 ( Feedrate. )


G00 Z5.00000 (Retract to tool change height)
T1
M5      (Spindle stop.)
G04 P1.00000 (Wait for spindle to stop)
(MSG, Change tool bit to cutter diameter 1.00000mm)
M6      (Tool change.)
M0      (Temporary machine stop.)
M3 ( Spindle on clockwise. )
G04 P1.00000 (Wait for spindle to get up to speed)
G04 P0 ( dwell for no time -- G64 should not smooth over this point )
G00 Z1.00000 ( retract )

G00 X1.37302 Y1.12698 ( rapid move to begin. )
G01 Z-0.60000 F25.00000 ( plunge. )
G04 P0 ( dwell for no time -- G64 should not smooth over this point )
G01 F200.00000
G01 X1.37302 Y53.12687
G01 X1.36937 Y53.18712
G01 X1.35598 Y53.25626
G01 X1.33685 Y53.31354
G01 X1.30602 Y53.37686
G01 X1.27275 Y53.42723
G01 X1.22657 Y53.48042
G01 X1.17338 Y53.52659
G01 X1.12301 Y53.55987
G01 X1.05969 Y53.59070
G01 X1.00241 Y53.60983
G01 X0.93327 Y53.62321
G01 X0.87300 Y53.62687
G01 X-11.62696 Y53.62687
G01 X-16.62696 Y53.62687
G01 X-29.12691 Y53.62687
G01 X-29.18716 Y53.62321
G01 X-29.25630 Y53.60983
G01 X-29.31358 Y53.59070
G01 X-29.37690 Y53.55987
G01 X-29.42727 Y53.52659
G01 X-29.48046 Y53.48042
G01 X-29.52663 Y53.42723
G01 X-29.55991 Y53.37686
G01 X-29.59074 Y53.31354
G01 X-29.60987 Y53.25626
G01 X-29.62326 Y53.18712
G01 X-29.62691 Y53.12687
G01 X-29.62691 Y1.12698
G01 X-29.62326 Y1.06670
G01 X-29.60987 Y0.99756
G01 X-29.59074 Y0.94029
G01 X-29.55991 Y0.87696
G01 X-29.52663 Y0.82660
G01 X-29.48046 Y0.77341
G01 X-29.42727 Y0.72723
G01 X-29.37690 Y0.69396
G01 X-29.31358 Y0.66312
G01 X-29.25630 Y0.64400
G01 X-29.18716 Y0.63061
G01 X-29.12691 Y0.62695
G01 X-16.62696 Y0.62695
G01 X-11.62696 Y0.62695
G01 X0.87300 Y0.62695
G01 X0.97303 Y0.63706
G01 X1.05969 Y0.66312
G01 X1.10538 Y0.68423
G01 X1.14869 Y0.70983
G01 X1.22657 Y0.77341
G01 X1.29014 Y0.85129
G01 X1.31575 Y0.89459
G01 X1.33685 Y0.94029
G01 X1.36292 Y1.02695
G01 X1.37302 Y1.12698
G01 Z-1.20000 F25.00000 ( plunge. )
G04 P0 ( dwell for no time -- G64 should not smooth over this point )
G01 F200.00000
G01 X1.37302 Y53.12687
G01 X1.36937 Y53.18712
G01 X1.35598 Y53.25626
G01 X1.33685 Y53.31354
G01 X1.30602 Y53.37686
G01 X1.27275 Y53.42723
G01 X1.22657 Y53.48042
G01 X1.17338 Y53.52659
G01 X1.12301 Y53.55987
G01 X1.05969 Y53.59070
G01 X1.00241 Y53.60983
G01 X0.93327 Y53.62321
G01 X0.87300 Y53.62687
G01 X-11.62696 Y53.62687
G01 X-16.62696 Y53.62687
G01 X-29.12691 Y53.62687
G01 X-29.18716 Y53.62321
G01 X-29.25630 Y53.60983
G01 X-29.31358 Y53.59070
G01 X-29.37690 Y53.55987
G01 X-29.42727 Y53.52659
G01 X-29.48046 Y53.48042
G01 X-29.52663 Y53.42723
G01 X-29.55991 Y53.37686
G01 X-29.59074 Y53.31354
G01 X-29.60987 Y53.25626
G01 X-29.62326 Y53.18712
G01 X-29.62691 Y53.12687
G01 X-29.62691 Y1.12698
G01 X-29.62326 Y1.06670
G01 X-29.60987 Y0.99756
G01 X-29.59074 Y0.94029
G01 X-29.55991 Y0.87696
G01 X-29.52663 Y0.82660
G01 X-29.48046 Y0.77341
G01 X-29.42727 Y0.72723
G01 X-29.37690 Y0.69396
G01 X-29.31358 Y0.66312
G01 X-29.25630 Y0.64400
G01 X-29.18716 Y0.63061
G01 X-29.12691 Y0.62695
G01 X-16.62696 Y0.62695
G01 X-11.62696 Y0.62695
G01 X0.87300 Y0.62695
G01 X0.97303 Y0.63706
G01 X1.05969 Y0.66312
G01 X1.10538 Y0.68423
G01 X1.14869 Y0.70983
G01 X1.22657 Y0.77341
G01 X1.29014 Y0.85129
G01 X1.31575 Y0.89459
G01 X1.33685 Y0.94029
G01 X1.36292 Y1.02695
G01 X1.37302 Y1.12698
G01 Z-1.80000 F25.00000 ( plunge. )
G04 P0 ( dwell for no time -- G64 should not smooth over this point )
G01 F200.00000
G01 X1.37302 Y53.12687
G01 X1.36937 Y53.18712
G01 X1.35598 Y53.25626
G01 X1.33685 Y53.31354
G01 X1.30602 Y53.37686
G01 X1.27275 Y53.42723
G01 X1.22657 Y53.48042
G01 X1.17338 Y53.52659
G01 X1.12301 Y53.55987
G01 X1.05969 Y53.59070
G01 X1.00241 Y53.60983
G01 X0.93327 Y53.62321
G01 X0.87300 Y53.62687
G01 X-11.62696 Y53.62687
G00 Z-1.20000
G01 X-16.62696 Y53.62687
G01 Z-1.80000 F25.00000
G01 F200.00000
G01 X-29.12691 Y53.62687
G01 X-29.18716 Y53.62321
G01 X-29.25630 Y53.60983
G01 X-29.31358 Y53.59070
G01 X-29.37690 Y53.55987
G01 X-29.42727 Y53.52659
G01 X-29.48046 Y53.48042
G01 X-29.52663 Y53.42723
G01 X-29.55991 Y53.37686
G01 X-29.59074 Y53.31354
G01 X-29.60987 Y53.25626
G01 X-29.62326 Y53.18712
G01 X-29.62691 Y53.12687
G01 X-29.62691 Y1.12698
G01 X-29.62326 Y1.06670
G01 X-29.60987 Y0.99756
G01 X-29.59074 Y0.94029
G01 X-29.55991 Y0.87696
G01 X-29.52663 Y0.82660
G01 X-29.48046 Y0.77341
G01 X-29.42727 Y0.72723
G01 X-29.37690 Y0.69396
G01 X-29.31358 Y0.66312
G01 X-29.25630 Y0.64400
G01 X-29.18716 Y0.63061
G01 X-29.12691 Y0.62695
G01 X-16.62696 Y0.62695
G00 Z-1.20000
G01 X-11.62696 Y0.62695
G01 Z-1.80000 F25.00000
G01 F200.00000
G01 X0.87300 Y0.62695
G01 X0.97303 Y0.63706
G01 X1.05969 Y0.66312
G01 X1.10538 Y0.68423
G01 X1.14869 Y0.70983
G01 X1.22657 Y0.77341
G01 X1.29014 Y0.85129
G01 X1.31575 Y0.89459
G01 X1.33685 Y0.94029
G01 X1.36292 Y1.02695
G01 X1.37302 Y1.12698

G04 P0 ( dwell for no time -- G64 should not smooth over this point )
G00 Z5.000000 ( retract )

M5 ( Spindle off. )
G04 P1.000000
M9 ( Coolant off. )
M2 ( Program end. )

